places/22/folder-templates.svg

<?xml version="1.0" encoding="UTF-8" standalone="no"?>
<!-- Created with Inkscape (http://www.inkscape.org/) -->

<svg
   xmlns:dc="http://purl.org/dc/elements/1.1/"
   xmlns:cc="http://creativecommons.org/ns#"
   xmlns:rdf="http://www.w3.org/1999/02/22-rdf-syntax-ns#"
   xmlns:svg="http://www.w3.org/2000/svg"
   xmlns="http://www.w3.org/2000/svg"
   xmlns:sodipodi="http://sodipodi.sourceforge.net/DTD/sodipodi-0.dtd"
   xmlns:inkscape="http://www.inkscape.org/namespaces/inkscape"
   id="svg13094"
   height="22"
   width="22"
   version="1.1"
   inkscape:version="0.48.3.1 r9886"
   sodipodi:docname="folder-templates.svg">
  <defs
     id="defs3009" />
  <sodipodi:namedview
     pagecolor="#ffffff"
     bordercolor="#666666"
     borderopacity="1"
     objecttolerance="10"
     gridtolerance="10"
     guidetolerance="10"
     inkscape:pageopacity="0"
     inkscape:pageshadow="2"
     inkscape:window-width="1920"
     inkscape:window-height="1033"
     id="namedview3007"
     showgrid="true"
     inkscape:zoom="29.5"
     inkscape:cx="7.9819769"
     inkscape:cy="10.8359"
     inkscape:window-x="-10"
     inkscape:window-y="25"
     inkscape:window-maximized="1"
     inkscape:current-layer="svg13094">
    <inkscape:grid
       type="xygrid"
       id="grid2982"
       empspacing="5"
       visible="true"
       enabled="true"
       snapvisiblegridlinesonly="true" />
  </sodipodi:namedview>
  <metadata
     id="metadata13099">
    <rdf:RDF>
      <cc:Work
         rdf:about="">
        <dc:format>image/svg+xml</dc:format>
        <dc:type
           rdf:resource="http://purl.org/dc/dcmitype/StillImage" />
        <dc:title />
      </cc:Work>
    </rdf:RDF>
  </metadata>
  <path
     sodipodi:nodetypes="ccscccccccscccccccccccccccccccccccccccccccccsssss"
     inkscape:connector-curvature="0"
     id="path2983"
     d="M 6,2 5.375,4.46875 C 4.544833,5.002338 4,5.939824 4,7 4,7.522754 4.139922,8.009536 4.375,8.4375 L 2,20 l 1,0 4,-9 4,9 1,0 L 9.625,8.4375 C 9.860078,8.009536 10,7.522754 10,7 10,5.939824 9.455167,5.002338 8.625,4.46875 L 8,2 z m 8,0 0,18 6,0 0,-1 -2,0 0,-1 2,0 0,-1 0,-1 -3,0 0,-1 3,0 0,-2 -2,0 0,-1 2,0 0,-2 -3,0 0,-1 3,0 0,-2 -2,0 0,-1 2,0 0,-2 -3,0 0,-1 3,0 0,-1 z M 7,6 C 7.5522847,6 8,6.4477153 8,7 8,7.5522847 7.5522847,8 7,8 6.4477153,8 6,7.5522847 6,7 6,6.4477153 6.4477153,6 7,6 z"
     style="fill:#27303a;fill-opacity:0.753280819999999968" />
  <path
     style="font-size:medium;font-style:normal;font-variant:normal;font-weight:normal;font-stretch:normal;text-indent:0;text-align:start;text-decoration:none;line-height:normal;letter-spacing:normal;word-spacing:normal;text-transform:none;direction:ltr;block-progression:tb;writing-mode:lr-tb;text-anchor:start;baseline-shift:baseline;color:#000000;fill:#f1f3f5;fill-opacity:0.90288714000000003;fill-rule:nonzero;stroke:none;stroke-width:2;marker:none;visibility:visible;display:inline;overflow:visible;enable-background:accumulate;font-family:Sans;-inkscape-font-specification:Sans"
     d="M 5.21875,1 5.03125,1.75 4.4375,4.03125 C 3.5913543,4.7689242 3,5.8018867 3,7 3,7.5178308 2.946546,7.9574855 3.125,8.40625 L 0.78125,19.8125 0.78125,21 2,21 l 1,0 0.65625,0 0.5,-0.59375 L 7,13.6875 9.84375,20.40625 10.34375,21 11,21 12,21 12,20 11,20 7,11 3,20 2,20 4.375,8.4375 C 4.139922,8.009536 4,7.522754 4,7 4,5.939824 4.544833,5.002338 5.375,4.46875 L 6,2 8,2 8.625,4.46875 C 9.455167,5.002338 10,5.939824 10,7 10,7.522754 9.860078,8.009536 9.625,8.4375 L 12,20 12,13.875 10.875,8.40625 C 11.053454,7.9574855 11,7.5178308 11,7 11,5.8018867 10.408646,4.7689242 9.5625,4.03125 L 8.96875,1.75 8.78125,1 8,1 6,1 5.21875,1 z M 13,1 l 0,1 0,6 0,10.75 0,2.25 0.21875,0 0.78125,0 6,0 1,0 0,-1 0,-1 0,-1 0,-1 0,-1 0,-1 0,-2 0,-1 0,-2 0,-1 0,-2 0,-1 0,-2 0,-1 0,-1 0,-1 -1,0 -6,0 -1,0 z m 1,1 6,0 0,1 -3,0 0,1 3,0 0,2 -2,0 0,1 2,0 0,2 -3,0 0,1 3,0 0,2 -2,0 0,1 2,0 0,2 -3,0 0,1 3,0 0,1 0,1 -2,0 0,1 2,0 0,1 -6,0 0,-18 z M 7,6 C 6.4477153,6 6,6.4477153 6,7 6,7.5522847 6.4477153,8 7,8 7.5522847,8 8,7.5522847 8,7 8,6.4477153 7.5522847,6 7,6 z"
     id="path3644"
     inkscape:connector-curvature="0" />
</svg>

<?xml version="1.0" encoding="UTF-8"?>
<svg id="a" width="22" height="22" version="1.1" xmlns="http://www.w3.org/2000/svg" xmlns:cc="http://creativecommons.org/ns#" xmlns:dc="http://purl.org/dc/elements/1.1/" xmlns:rdf="http://www.w3.org/1999/02/22-rdf-syntax-ns#">
	<metadata id="d">
		<rdf:RDF>
			<cc:Work rdf:about="">
				<dc:format>image/svg+xml</dc:format>
				<dc:type rdf:resource="http://purl.org/dc/dcmitype/StillImage"/>
				<dc:title/>
			</cc:Work>
		</rdf:RDF>
	</metadata>
	<defs>
		<style id="current-color-scheme" type="text/css">.ColorScheme-Text {color:#090d11;}.ColorScheme-Background{color:#ffffff;}</style>
	</defs>
	<path id="c" d="m6 2-0.625 2.4688c-0.83017 0.53359-1.375 1.4711-1.375 2.5312 0 0.52275 0.13992 1.0095 0.375 1.4375l-2.375 11.562h1l4-9 4 9h1l-2.375-11.562c0.23508-0.42796 0.375-0.91475 0.375-1.4375 0-1.0602-0.54483-1.9977-1.375-2.5312l-0.625-2.4688zm8 0v18h6v-1h-2v-1h2v-2h-3v-1h3v-2h-2v-1h2v-2h-3v-1h3v-2h-2v-1h2v-2h-3v-1h3v-1zm-7 4c0.55228 0 1 0.44772 1 1s-0.44772 1-1 1-1-0.44772-1-1 0.44772-1 1-1z" style="fill:currentColor;fill-opacity:0.75;" class="ColorScheme-Text"/>
	<path id="b" d="m5.2188 1-0.1875 0.75-0.59375 2.2812c-0.84615 0.73767-1.4375 1.7706-1.4375 2.9688 0 0.51783-0.053454 0.95749 0.125 1.4062l-2.3438 11.406v1.1875h1.2188 1 0.65625l0.5-0.59375 2.8438-6.7188 2.8438 6.7188 0.5 0.59375h0.65625 1v-1h-1l-4-9-4 9h-1l2.375-11.562c-0.23508-0.42796-0.375-0.91475-0.375-1.4375 0-1.0602 0.54483-1.9977 1.375-2.5312l0.625-2.4688h2l0.625 2.4688c0.83017 0.53359 1.375 1.4711 1.375 2.5312 0 0.52275-0.13992 1.0095-0.375 1.4375l2.375 11.562v-6.125l-1.125-5.4688c0.17845-0.44876 0.125-0.88842 0.125-1.4062 0-1.1981-0.59135-2.2311-1.4375-2.9688l-0.59375-2.2812-0.1875-0.75h-0.78125-2zm7.7812 0v1 6 10.75 2.25h0.21875 0.78125 6 1v-1-1-1-1-1-1-2-1-2-1-2-1-2-1-1-1h-1-6zm1 1h6v1h-3v1h3v2h-2v1h2v2h-3v1h3v2h-2v1h2v2h-3v1h3v1 1h-2v1h2v1h-6zm-7 4c-0.55228 0-1 0.44772-1 1s0.44772 1 1 1 1-0.44772 1-1-0.44772-1-1-1z" style="fill:currentColor;fill-opacity:0.5;" class="ColorScheme-Background"/>
</svg>
